X: 100388
P: THE CHORUS LANCERS QUADRILLES -- Part 2.
C: Arranged by W. Crow, Edinburgh
B: K\"ohler's Violin Repository, v.3, 1885 p.254 #2
F: http://www.archive.org/details/klersviolinrepos03rugg
Z: 2012 John Chambers <jc:trillian.mit.edu>
R: march
M: 2/4
L: 1/16
K: D
[|\
vd'2c'b a2d2 | d'2c'b a2a2 | e2a2e2a2 | fgfe d2d2 |\
d'2c'b a2d2 | d'2c'b a2a2 | e2a2 e2fe | d2z2 vd'2z2 |]
vF2A2 A4- | A2B^G A2f2- | f2g^d e4- | e2fe c2d2 |\
F2A2 A4- | A2B^G A2f2 | (^gf)ed edcB | cBA^G A2A2 |
A2f2e2d2 | (.d3.A) A4 | A2{^d}e2A2{^d}e2 | A2(ea) a2A2 |\
A2f2e2d2 | (.d3.A) A4 | e2AA e2A2 | a2ef d2d2 "^D.C."|]

%%sep 2 1 500

